svgs/sharp-light/square-8.svg

<svg xmlns="http://www.w3.org/2000/svg" viewBox="0 0 448 512"><!--! Font Awesome Pro 6.6.0 by @fontawesome - https://fontawesome.com License - https://fontawesome.com/license (Commercial License) Copyright 2024 Fonticons, Inc. --><path d="M416 64l0 384L32 448 32 64l384 0zM32 32L0 32 0 64 0 448l0 32 32 0 384 0 32 0 0-32 0-384 0-32-32 0L32 32zm204 96l-24 0c-37.6 0-68 30.4-68 68c0 20.2 8.8 38.4 22.9 50.9C148.1 260.7 136 282.9 136 308c0 42 34 76 76 76l24 0c42 0 76-34 76-76c0-25.1-12.1-47.3-30.9-61.1c14-12.5 22.9-30.6 22.9-50.9c0-37.6-30.4-68-68-68zM212 232c-19.9 0-36-16.1-36-36s16.1-36 36-36l24 0c19.9 0 36 16.1 36 36s-16.1 36-36 36l-24 0s0 0 0 0zm0 32s0 0 0 0l24 0c24.3 0 44 19.7 44 44s-19.7 44-44 44l-24 0c-24.3 0-44-19.7-44-44s19.7-44 44-44z"/></svg>

<svg xmlns="http://www.w3.org/2000/svg" viewBox="0 0 448 512"><!--! Font Awesome Pro 6.4.0 by @fontawesome - https://fontawesome.com License - https://fontawesome.com/license (Commercial License) Copyright 2023 Fonticons, Inc. --><path d="M416 64V448H32V64H416zM32 32H0V64 448v32H32 416h32V448 64 32H416 32zm204 96H212c-37.6 0-68 30.4-68 68c0 20.2 8.8 38.4 22.9 50.9C148.1 260.7 136 282.9 136 308c0 42 34 76 76 76h24c42 0 76-34 76-76c0-25.1-12.1-47.3-30.9-61.1c14-12.5 22.9-30.6 22.9-50.9c0-37.6-30.4-68-68-68zM212 232c-19.9 0-36-16.1-36-36s16.1-36 36-36h24c19.9 0 36 16.1 36 36s-16.1 36-36 36H212s0 0 0 0zm0 32s0 0 0 0h24c24.3 0 44 19.7 44 44s-19.7 44-44 44H212c-24.3 0-44-19.7-44-44s19.7-44 44-44z"/></svg>
